!! Isochronous pitch passage.
!! Solo-line.
!! From C.J. Andersen, Eighteen Studies for Flute Opus 41, No. 8;
!! Flute
!! 3/4 meter
**kern	**metpos
*M3/4	*M3/4
*tb8	*tb8
=1	=1
8f#	1
8e#	3
8f#	2
8a	3
8cc#	2
8g#	3
=2	=2
8a	1
8g#	3
8a	2
8cc#	3
8ff#	2
8b#	3
=3	=3
8cc#	1
8b#	3
8cc#	2
8ff#	3
8aa	2
8ddd	3
=4	=4
8bb#	1
8ccc#	3
8gg#	2
8aa	3
8ee#	2
8ff#	3
=5	=5
8cc#	1
8bb	3
8dd	2
8bb	3
8cc#	2
8bb	3
=6	=6
8aa	1
8cc#	3
8gg#	2
8b	3
8ff#	2
8a	3
=7	=7
8ee#	1
8g#	3
8een	2
8a#	3
8dd#	2
8b#	3
=8	=8
8cc#	1
8ddn	3
8g#	2
8an	3
8bn	2
8cc#	3
=9	=9
8f#	1
8e#	3
8f#	2
8a	3
8cc#	2
8g#	3
=10	=10
8a	1
8g#	3
8a	2
8cc#	3
8ff#	2
8b#	3
=11	=11
8cc#	1
8b#	3
8cc#	2
8ff#	3
8aa	2
8ddd	3
=12	=12
8bb#	1
8ccc#	3
8gg#	2
8aa	3
8ee#	2
8ff#	3
=13	=13
8b#	1
8gg#	3
8ee	2
8gg#	3
8dd#	2
8ff#	3
=14	=14
8ee	1
8cc#	3
8ee	2
8a	3
8ee	2
8g#	3
=15	=15
8f##	1
8dd#	3
8bb	2
8dd#	3
8aa#	2
8cc#	3
=16	=16
8aan	1
8b#	3
8ff##	2
8b#	3
8gg#	2
8b#	3
=17	=17
8g#	1
8f##	3
8g#	2
8bn	3
8ee	2
8a#	3
=18	=18
8b	1
8a#	3
8b	2
8ee	3
8gg#	2
8b#	3
=19	=19
8cc#	1
8b#	3
8cc#	2
8ff#	3
8aa	2
8ddd#	3
=20	=20
8bb#	1
8ccc#	3
8gg#	2
8aa	3
8ee#	2
8ff#	3
=21	=21
8bb	1
8aa#	3
8bb	2
8cc#	3
8bb	2
8cc##	3
=22	=22
8bb	1
8dd#	3
8bb	2
8gg#	3
8bb	2
8gg#	3
=23	=23
8bb	1
8ff##	3
8gg#	2
8ccc#	3
8bb	2
8gg#	3
=24	=24
8bb	1
8cc##	3
8dd#	2
8gg#	3
8ff#	2
8a	3
=25	=25
*-	*-
